!!!COM:	Martini, Johannes
!!!CDT:	~1440///-~1497//
!!!OTL:	Festum nunc celebre
!!!AGN:	Motet
!!!SCT:	Mar2050
!!!SCA:	Mar2050
!!!voices:	4
**kern	**kern	**kern	**kern
*staff4	*staff3	*staff2	*staff1
*Ivox	*Ivox	*Ivox	*Ivox
*I"Bassus	*I"Tenor	*I"Altus	*I"Superius
*I'B	*I'T	*I'A	*I'S
*clefF4	*clefGv2	*clefGv2	*clefG2
*k[]	*k[]	*k[]	*k[]
*M2/1	*M2/1	*M2/1	*M2/1
*met(C)	*met(C)	*met(C)	*met(C)
=1-	=1-	=1-	=1-
!!section: Festum nunc celebre
!!!OMD: Festum nunc celebre
2.G\	0r	0r	0g
4A\	.	.	.
2B\	.	.	.
[2c\	.	.	.
=2	=2	=2	=2
4c\]	0r	0r	1e
4A\	.	.	.
1A	.	.	.
.	.	.	1f
[2d\	.	.	.
=3	=3	=3	=3
2d\]	0r	0r	0e
4c\	.	.	.
4B\	.	.	.
1c	.	.	.
=4	=4	=4	=4
2B\	0r	0d	1d
1G	.	.	.
.	.	.	2g/
2F\	.	.	2a/
=5	=5	=5	=5
4G\	0r	1B	2b\
4F\	.	.	.
4E\	.	.	2.g/
4D\	.	.	.
1C	.	1c	.
.	.	.	4f/
.	.	.	2e/
=6	=6	=6	=6
0GG	0G	0B	2d/
.	.	.	2.g/
.	.	.	4f/
.	.	.	4e/
.	.	.	4d/
=7	=7	=7	=7
1AA	1E	1.A	1c
1D	1F	.	1d
.	.	[2d\	.
=8	=8	=8	=8
2r	0E	2d\]	1e
1G	.	4c#i\	.
.	.	4B\	.
.	.	2.c#i\	1g
2E\	.	.	.
.	.	4B\	.
=9	=9	=9	=9
2F\	1.D	1d	2.f/
2.D\	.	.	.
.	.	.	4g/
.	.	1d	2a/
4GG/	.	.	.
2GG/	[2G/	.	4b\
.	.	.	4cc\
=10	=10	=10	=10
1BB	2G/]	0r	1dd
.	4F#i/	.	.
.	4E/	.	.
1AA	2.F#i/	.	1cc
.	4E/	.	.
=11	=11	=11	=11
2.GG/	1G	1d	2.b\
4AA/	.	.	4cc\
2BB/	1G	2d\	2dd\
[2C/	.	[2e\	4cc\
.	.	.	4b\
=12	=12	=12	=12
2C/]	0r	2e\]	4a/
.	.	.	4g/
2BB/	.	2d\	1g
2C/	.	1c	.
2AA/	.	.	2f#i/
=13	=13	=13	=13
1GG	1G	2B\	1g
.	.	1d	.
1r	2G/	.	1r
.	[2A/	2c\	.
=14	=14	=14	=14
0r	2A/]	1B	0r
.	2G/	.	.
.	1F	1A	.
=15	=15	=15	=15
0r	2E/	2r	0r
.	1G	2d\	.
.	.	2e\	.
.	2F/	[2d\	.
=16	=16	=16	=16
1r	1E	2d\]	1g
.	.	2c#i\	.
2r	1D	1d	1f
2D\	.	.	.
=17	=17	=17	=17
2BB/	2r	1d	2.d/
2GG/	2G/	.	.
.	.	.	4e/
2D\	2A/	1r	2f/
4C/	[2G/	.	2g/
4BB/	.	.	.
=18	=18	=18	=18
1AA	2G/]	1c	2a/
.	2F#i/	.	2cc\
[1GG	1G	1e	2b\
.	.	.	2g/
=19	=19	=19	=19
1GG]	1r	0d	1b
1D	1F	.	2a/
.	.	.	2b\
=20	=20	=20	=20
2AA/	1A	2e\	2cc\
2D\	.	2f\	2dd\
2E\	[1G	[1g	2b\
2C/	.	.	2cc\
=21	=21	=21	=21
1E	1G]	2g\]	2b\
.	.	2e\	2cc\
1D	2A/	1f	1dd
.	2B\	.	.
=22	=22	=22	=22
0C	1.c	2r	2g/
.	.	[1.e	2.cc\
.	.	.	4dd\
.	2A/	.	4cc\
.	.	.	8b/L
.	.	.	8a/J
=23	=23	=23	=23
1r	1B	2e\]	2.g/
.	.	2d\	.
.	.	.	4f/
*M2/1	*	*	*M2/1
*met(3)	*	*	*met(3)
3.AA/	2r	1e	3.a/
6BB/	[2A/	.	6g/
3C/	.	.	3e/
=24	=24	=24	=24
3D\	1.A]	0r	3d/
3AA/	.	.	3c/
[3C/	.	.	[3e/
3C/]	.	.	3e/]
3%2BB	.	.	3%2d
.	2G/	.	.
=25	=25	=25	=25
*M2/1	*	*	*M2/1
*met(C)	*	*	*met(C)
2.AA/	1A	1.e	2.c/
4BB/	.	.	4d/
2C/	1r	.	2e/
2D\	.	[2d\	2f/
=26	=26	=26	=26
1GG	1r	1d]	1g
1AA	[1A	1c	1e
=27	=27	=27	=27
0E	2A/]	1B	2r
.	1.G	.	2.g/
.	.	1c	.
.	.	.	4f/
.	.	.	4e/
.	.	.	4d/
=28	=28	=28	=28
1D	1F	2d\	2f/
.	.	1d	2.a/
1AA	1E	.	.
.	.	.	4b\
.	.	2c\	2cc\
=29	=29	=29	=29
2r	1F	1d	1a
2D\	.	.	.
2BB/	2G/	1d	2r
2GG/	[2G/	.	[2d/
=30	=30	=30	=30
1AA	2G/]	0r	4d/]
.	.	.	4c/
.	2F#i/	.	2c/
2GG/	1G	.	1e
[2C/	.	.	.
=31	=31	=31	=31
2C/]	1G	0r	1d
2BB/	.	.	.
2C/	1r	.	2c/
2D\	.	.	2f/
=32	=32	=32	=32
2.C/	1.G	1r	2.e/
4BB/	.	.	4f/
2GG/	.	[1d	1g
[2G\	[2B\	.	.
=33	=33	=33	=33
4G\]	4B\]	2d\]	0r
4F\	4A/	.	.
2D\	1d	2.f\	.
1A	.	.	.
.	.	4e\	.
.	2c\	[2a\	.
=34	=34	=34	=34
2.B\	1d	2a\]	0r
.	.	2g\	.
4A\	.	.	.
2F\	1d	1a	.
[2D\	.	.	.
=35	=35	=35	=35
2D\]	0r	1a	0r
2C/	.	.	.
4D\	.	1a	.
4C/	.	.	.
2AA/	.	.	.
=36	=36	=36	=36
2GG/	1d	2b\	0r
2D\	.	2.a\	.
2C/	2e\	.	.
.	.	4g\	.
2G\	[2d\	[2g\	.
=37	=37	=37	=37
1A	4d\]	2g\]	0r
.	4c\	.	.
.	1c	2f#i\	.
1G	.	1g	.
.	2B\	.	.
=38	=38	=38	=38
1C	1c	1e	1g
1D	1A	1d	1f
=39	=39	=39	=39
1r	1G	2d\	0g
.	.	2.d\	.
1E	2G/	.	.
.	.	4c#i\	.
.	[2G/	4c#i\	.
.	.	4B\	.
=40	=40	=40	=40
1D	4G/]	1d	1a
.	4F#i/	.	.
.	4F#i/	.	.
.	4E/	.	.
2.GG/	1G	1d	2.b\
4AA/	.	.	4cc\
=41	=41	=41	=41
2.BB/	1G	2r	2dd\
.	.	2d\	4cc\
4C/	.	.	4b\
2D\	1r	1d	2a/
2BB/	.	.	4g/
.	.	.	4f/
=42	=42	=42	=42
2.C/	2r	1c	1e
.	2G/	.	.
4BB/	.	.	.
1GG	1G	1B	2d/
.	.	.	[2b\
=43	=43	=43	=43
0r	1F	2c\	4b\]
.	.	.	4a/
.	.	2A/	1a
.	1E	1B	.
.	.	.	2g#i/
=44	=44	=44	=44
2D\	2F/	2A/	1a
2F\	2D/	1d	.
2G\	1E	.	1g
2E\	.	2c#i\	.
=45	=45	=45	=45
2F\	2D/	2d\	2f/
2E\	1G	2e\	2g/
1D	.	1f	2.a/
.	2F/	.	.
.	.	.	4b\
=46	=46	=46	=46
1C	2G/	1e	2cc\
.	2A/	.	2.a/
1G	1B	[1d	.
.	.	.	4g/
.	.	.	[2g/
=47	=47	=47	=47
1D	1A	0d_	2g/]
.	.	.	2f#i/
2GG/	[1G	.	2g/
[2GG/	.	.	[2b\
=48	=48	=48	=48
4GG/]	0G_	1d]	4b\]
4AA/	.	.	4cc\
2BB/	.	.	2dd\
2C/	.	1r	2g/
2BB/	.	.	[2b\
=49	=49	=49	=49
2GG/	1G]	1d	4b\]
.	.	.	4a/
1G	.	.	1dd
.	1r	1e	.
2A\	.	.	2cc\
=50	=50	=50	=50
2B\	1G	[0dl	2dd\
2.G\	.	.	2b\
.	1A	.	4a/
4F#i\	.	.	4b\
4F#i\	.	.	4cc\
4E\	.	.	4dd\
=51	=51	=51	=51
0GG 0Gl	0Gl	0d]	0b 0ddl
==	==	==	==
*-	*-	*-	*-
!!!RDF**kern: l=long note in original notation
!!!RDF**kern: i=editorial accidental
!!!ENC:	Chris Gage 08-19-2014
!!!END:	2014/10/06/
!!!EED:	Jesse Rodin
!!!EEV:	2014/10/18/
!!!ONB:	Translated from MusicXML and edited on 2014/10/18/ by Craig Sapp
!!muse2ps: C^@{COM}^i2I150v85,85,85,150Q16
